X:1
T:Staffordshire, 11.10.11.10
T:Staffordshire, 11.10.11.10
T:Ira David Sakey, 1900
T:Public Domain Courtesy of the Cyber Hymnal™
C:Ira David Sakey, 1900
Z:Public Domain
Z:Courtesy of the Cyber Hymnal™
%%score 1 ( 2 3 )
L:1/8
Q:1/4=114
M:3/4
K:C
V:1 treble 
V:2 bass 
V:3 bass 
V:1
 [EG]2 [CE]2 [DF]2 | [EG]4 [Gc]2 | [Fe]3 [Fd] [FA][FB] | [EA]2 [EG]4 | [DF]2 [B,D]2 [CE]2 | %5
 [DF]4 [DB]2 | [DB]3 [CA] [B,G][B,D] | [CE]6 | [EG]2 [CE]2 [DF]2 | [EG]4 [Ec]2 | %10
 [Ge]3 [Ge] [Gf][Ge] | [Ge]2 [Fd]4 | [^Dc]2 [DB]2 [DA]2 | [EG]4 [Ec]2 | [Fd]3 [FA] [FB][FG] | %15
 [Ec]6 |] %16
V:2
 [C,C]2 [C,G,]2 [C,G,]2 | [C,C]4 [E,C]2 | [G,B,]3 [G,B,] [G,D][G,D] | [C,C]2 [C,C]4 | %4
 [G,,B,]2 [G,,G,]2 [G,,G,]2 | [G,,G,]4 [G,,G,]2 | [G,,G,]3 [G,,G,] [G,,G,][G,,G,] | [C,G,]6 | %8
 [C,C]2 [C,G,]2 [C,G,]2 | [C,C]4 C2 | [A,^C]3 [A,C] [A,C][A,C] | [D,^C]2 [D,D]4 | %12
 [^F,A,]2 [F,B,]2 [F,C]2 | [G,C]4 [G,C]2 | [G,B,]3 [G,C] [G,D][G,B,] | [C,G,]6 |] %16
V:3
 x6 | x6 | x6 | x6 | x6 | x6 | x6 | x6 | x6 | x4 C2 | x6 | x6 | x6 | x6 | x6 | x6 |] %16

